X: 1
T: Brother John
M: 6/8
L: 1/8
R: jig
K: Gmaj
B2B AGE|DEG ~A3|BGG AGE|DEG G2B|
dGd AGE|DEG ~A3|BGG AGE|DEG G2D||
GBd edd|ege dBA|GBd edB|def ~g3|
GBd ~e3|ege dBA|B2G AGE|DEG G2D||
GBd edd|ege dBA|GBd edB|def g2a|
~b3 age|~g3 edB|~d3 edB|AGF Gdc|
